icons/mimetypes/32/application-x-ms-shortcut.svg

<?xml version="1.0" encoding="UTF-8" standalone="no"?>
<!-- Created with Inkscape (http://www.inkscape.org/) -->

<svg
   xmlns:dc="http://purl.org/dc/elements/1.1/"
   xmlns:cc="http://creativecommons.org/ns#"
   xmlns:rdf="http://www.w3.org/1999/02/22-rdf-syntax-ns#"
   xmlns:svg="http://www.w3.org/2000/svg"
   xmlns="http://www.w3.org/2000/svg"
   xmlns:xlink="http://www.w3.org/1999/xlink"
   xmlns:sodipodi="http://sodipodi.sourceforge.net/DTD/sodipodi-0.dtd"
   xmlns:inkscape="http://www.inkscape.org/namespaces/inkscape"
   width="32"
   version="1.1"
   height="32"
   id="svg2"
   inkscape:version="0.91 r13725"
   sodipodi:docname="application-x-ms-shortcut.svg">
  <sodipodi:namedview
     pagecolor="#ffffff"
     bordercolor="#666666"
     borderopacity="1"
     objecttolerance="10"
     gridtolerance="10"
     guidetolerance="10"
     inkscape:pageopacity="0"
     inkscape:pageshadow="2"
     inkscape:window-width="1920"
     inkscape:window-height="985"
     id="namedview27"
     showgrid="true"
     inkscape:object-nodes="true"
     inkscape:zoom="20.85965"
     inkscape:cx="2.6718127"
     inkscape:cy="15.475092"
     inkscape:window-x="0"
     inkscape:window-y="30"
     inkscape:window-maximized="1"
     inkscape:current-layer="layer1">
    <inkscape:grid
       type="xygrid"
       id="grid4168" />
  </sodipodi:namedview>
  <defs
     id="defs5455">
    <style
       type="text/css"
       id="current-color-scheme">
      .ColorScheme-Text {
        color:#4d4d4d;
      }
      .ColorScheme-Background {
        color:#eff0f1;
      }
      .ColorScheme-Highlight {
        color:#3daee9;
      }
      .ColorScheme-ViewText {
        color:#31363b;
      }
      .ColorScheme-ViewBackground {
        color:#fcfcfc;
      }
      .ColorScheme-ViewHover {
        color:#93cee9;
      }
      .ColorScheme-ViewFocus{
        color:#3daee9;
      }
      .ColorScheme-ButtonText {
        color:#31363b;
      }
      .ColorScheme-ButtonBackground {
        color:#eff0f1;
      }
      .ColorScheme-ButtonHover {
        color:#93cee9;
      }
      .ColorScheme-ButtonFocus{
        color:#3daee9;
      }
      </style>
    <linearGradient
       inkscape:collect="always"
       xlink:href="#linearGradient4300-8"
       id="linearGradient4306-3"
       y1="61"
       y2="3"
       x2="0"
       gradientUnits="userSpaceOnUse"
       gradientTransform="matrix(0.49999977,0,0,-0.48275841,384.57144,547.24623)" />
    <linearGradient
       inkscape:collect="always"
       id="linearGradient4300-8">
      <stop
         style="stop-color:#f27935"
         id="stop4302-5" />
      <stop
         offset="1"
         style="stop-color:#f2784b"
         id="stop4304-7" />
    </linearGradient>
    <linearGradient
       inkscape:collect="always"
       xlink:href="#linearGradient4351-4"
       id="linearGradient4357-7"
       y1="61"
       y2="47"
       x2="0"
       gradientUnits="userSpaceOnUse"
       gradientTransform="matrix(0.48275841,0,0,-0.48275841,385.26109,547.48761)" />
    <linearGradient
       inkscape:collect="always"
       id="linearGradient4351-4">
      <stop
         style="stop-color:#f7ab89"
         id="stop4353-8" />
      <stop
         offset="1"
         style="stop-color:#fbd2bf"
         id="stop4355-5" />
    </linearGradient>
    <linearGradient
       inkscape:collect="always"
       xlink:href="#linearGradient4410"
       id="linearGradient4427-3"
       y1="31"
       x1="54"
       y2="16.500048"
       x2="39.500008"
       gradientUnits="userSpaceOnUse"
       gradientTransform="matrix(0,-0.48275841,-0.48275841,0,419.53694,550.86696)" />
    <linearGradient
       inkscape:collect="always"
       id="linearGradient4410">
      <stop
         style="stop-color:#383e51"
         id="stop4412" />
      <stop
         offset="1"
         style="stop-color:#655c6f;stop-opacity:0"
         id="stop4414" />
    </linearGradient>
  </defs>
  <metadata
     id="metadata5458">
    <rdf:RDF>
      <cc:Work
         rdf:about="">
        <dc:format>image/svg+xml</dc:format>
        <dc:type
           rdf:resource="http://purl.org/dc/dcmitype/StillImage" />
        <dc:title />
      </cc:Work>
    </rdf:RDF>
  </metadata>
  <g
     inkscape:label="Capa 1"
     inkscape:groupmode="layer"
     id="layer1"
     transform="matrix(1 0 0 1 -384.57143 -515.798)">
    <path
       inkscape:connector-curvature="0"
       style="fill:url(#linearGradient4306-3);fill-opacity:1"
       id="rect3500-2"
       d="m 389.57144,545.79796 0,-27.99999 14.99999,0 7.00003,7 -3e-5,14.24137 0,6.75862 -7,0 z" />
    <rect
       width="14.999983"
       x="389.57144"
       y="-518.79797"
       height="0.999973"
       style="fill:#ffffff;fill-opacity:0.41176471"
       id="rect4169-9"
       transform="scale(1,-1)" />
    <rect
       width="21.999994"
       x="389.57144"
       y="-545.79797"
       height="1.00003"
       style="fill:#2e3132;fill-opacity:0.29411765"
       id="rect4236-1"
       transform="scale(1,-1)" />
    <path
       inkscape:connector-curvature="0"
       style="fill:url(#linearGradient4357-7);fill-opacity:1;fill-rule:evenodd"
       id="path4314-2"
       d="m 411.57144,524.79797 -7.00001,-7 0,7 z" />
    <path
       inkscape:connector-curvature="0"
       style="opacity:0.2;fill:url(#linearGradient4427-3);fill-rule:evenodd"
       id="path4320-7"
       d="m 411.5714,531.798 -6.99997,-7 7,0 z" />
    <rect
       width="0"
       x="415.89221"
       y="526.79797"
       height="10.999983"
       style="fill:#ffffff"
       id="rect4035" />
    <rect
       width="0"
       x="415.57144"
       y="525.79797"
       height="10.999983"
       style="fill:#ffffff"
       id="rect4035-4" />
    <g
       transform="translate(389.57143,-506.5642)"
       id="layer1-8"
       style="fill:#fbd2bf;fill-opacity:1"
       inkscape:label="Capa 1">
      <g
         style="fill:#fbd2bf;fill-opacity:1"
         inkscape:label="Capa 1"
         id="layer1-1"
         transform="translate(-421.71429,503.57146)">
        <path
           inkscape:connector-curvature="0"
           style="color:#4d4d4d;opacity:1;fill:#fbd2bf;fill-opacity:1;stroke:none;stroke-width:2.79999995;stroke-miterlimit:4;stroke-dasharray:none;stroke-opacity:0.55026455"
           d="M 4,6 4,6.5 4,7 3,7 3,7.9082031 3,9 3,14 3,14.091797 3,15 3.5,15 4,15 4,16 4.9082031,16 6,16 l 10,0 0.0918,0 1,0 0.9082,0 0,-1 0.5,0 0.5,0 0,-0.908203 L 19,13 19,9 19,7.9082031 19,7 18,7 18,6.5 18,6 l -0.908203,0 -1,0 L 4.9082031,6 4,6 Z m 0.9082031,1 11.1835939,0 1,0 C 17.242137,7.4247 17.5753,7.7578631 18,7.9082031 L 18,9 l 0,4 0,1.091797 C 17.5753,14.242137 17.242137,14.5753 17.091797,15 l -1,0 L 16,15 6,15 4.9082031,15 C 4.7578631,14.5753 4.4247,14.242137 4,14.091797 L 4,13 4,9 4,7.9082031 C 4.4247013,7.7578551 4.7578551,7.4247013 4.9082031,7 Z M 11,8 c -1.662,0 -3,1.338 -3,3 0,1.662 1.338,3 3,3 1.662,0 3,-1.338 3,-3 0,-1.662 -1.338,-3 -3,-3 z m 0,1 c 1.108,0 2,0.892 2,2 0,1.108 -0.892,2 -2,2 C 9.892,13 9,12.108 9,11 9,9.892 9.892,9 11,9 Z"
           transform="translate(421.71429,525.79074)"
           id="rect4144"
           class="ColorScheme-Text" />
      </g>
    </g>
  </g>
</svg>

<svg width="32" xmlns="http://www.w3.org/2000/svg" height="32">
 <defs>
  <linearGradient id="a" y1="61" y2="3" x2="0" gradientUnits="userSpaceOnUse" gradientTransform="matrix(.5 0 0-.48276 384.57 547.25)">
   <stop stop-color="#f27935"/>
   <stop offset="1" stop-color="#f2784b"/>
  </linearGradient>
  <linearGradient id="b" y1="518.04" y2="524.8" x2="0" gradientUnits="userSpaceOnUse">
   <stop stop-color="#f7ab89"/>
   <stop offset="1" stop-color="#fbd2bf"/>
  </linearGradient>
  <linearGradient id="c" y1="524.8" x1="404.57" y2="531.8" x2="411.57" gradientUnits="userSpaceOnUse">
   <stop stop-color="#383e51"/>
   <stop offset="1" stop-color="#655c6f" stop-opacity="0"/>
  </linearGradient>
 </defs>
 <g transform="translate(-384.57-515.8)">
  <path fill="url(#a)" d="m389.57 545.8v-28h15l7 7v21h-7z"/>
  <g transform="scale(1-1)">
   <rect width="15" x="389.57" y="-518.8" fill="#ffffff" height="1" fill-opacity=".412"/>
   <rect width="22" x="389.57" y="-545.8" fill="#2e3132" height="1" fill-opacity=".294"/>
  </g>
  <g fill-rule="evenodd">
   <path fill="url(#b)" d="m411.57 524.8l-7-7v7z"/>
   <path opacity=".2" fill="url(#c)" d="m411.57 531.8l-7-7h7z"/>
  </g>
  <path fill="#fbd2bf" color="#4d4d4d" d="m4 6v1h-1v8h1v1h14v-1h1v-8h-1v-1h-13.09zm.908 1h12.184c.15.425.484.758.908.908v6.184c-.425.15-.758.484-.908.908h-12.184c-.15-.425-.484-.758-.908-.908v-6.184c.425-.15.758-.484.908-.908m6.092 1c-1.662 0-3 1.338-3 3 0 1.662 1.338 3 3 3 1.662 0 3-1.338 3-3 0-1.662-1.338-3-3-3m0 1c1.108 0 2 .892 2 2 0 1.108-.892 2-2 2-1.108 0-2-.892-2-2 0-1.108.892-2 2-2" transform="translate(389.57 522.8)"/>
 </g>
</svg>
